X:1
T:Song of Simeon
T:Text: Luke 2:29-32; vers. Dewey Westra, 1931, alt. Tune: Louis Bourgeois, 1551; harm. Claude Goudinel, 1564
T:667 D NUNC DIMITTIS www.hymnary.org/text/now_may_your_servant_lord 
T:Song of Simeon
T:This hymn is in the public domain. You may freely use this score for personal and congregational worship. If you reproduce the score, please credit Hymnary.org as the source. 
T:This hymn is in the public domain. You may freely use this score for personal and congregational worship. If you reproduce the score, please credit Hymnary.org as the source. 
Z:This hymn is in the public domain. You may freely use this score for personal and congregational worship. If you reproduce the score, please credit Hymnary.org as the source.
%%score ( 1 2 ) ( 3 4 )
L:1/8
M:10/4
K:F
V:1 treble nm="SOPRANO ALTO" snm="S. A."
V:2 treble 
V:3 bass nm="TENOR BASS" snm="T. B."
V:4 bass 
V:1
"^1""^2" c4 d2 c2 B4 A4 G4 | B4 A2 F2 G2 G2 F4 | F4 c2 c2 d2 c2 B4 A8 |[M:8/4] c4 A2 B2 A2 G2 F4 |1 %4
w: Now may your ser- vant, Lord,|ac- cor- ding to your word,|de- part in ex- ul- ta- tion.|My peace shall be se- rene,|
w: You did for all pre- pare|this gift so great, so rare,|ful- fil- ling proph- ets' sto- ry—|a light to show the way|
 F4 D2 E2 F2 D2 C4 |[M:12/4] F4 G2 A2 B2 A2 G4 F8 |] %6
w: for now my eyes have seen|your won- der- ful sal- va- tion.|
w: to Gen- tiles gone a- stray,|and un- to Is- rael's glo- ry.|
V:2
 A4 B2 A2 (A2 G4) ^F2 G4 | G4 F2 F2 F2 E2 F4 | F4 F2 F2 F2 F2 F4 F8 |[M:8/4] G4 F2 F2 F2 E2 D4 |1 %4
 D4 D2 C2 C2 =B,2 C4 |[M:12/4] D4 D2 F2 F2 F2 (F2 E2) F8 |] %6
V:3
 F4 F2 F2 D4 D4 B,4 | D4 D2 A,2 C2 C2 A,4 | A,4 A,2 A,2 B,2 A,2 D4 C8 | %3
[M:8/4] E4 D2 D2 C2 C2 A,4 |1 B,4 F,2 A,2 A,2 G,2 E,4 |[M:12/4] B,4 B,2 C2 D2 C2 C4 A,8 |] %6
V:4
 F,4 B,,2 F,2 G,4 D,4 G,,4 | G,,4 D,2 D,2 C,2 C,2 F,,4 | F,4 F,2 F,2 B,,2 F,2 B,,4 F,8 | %3
[M:8/4] C,4 D,2 B,,2 F,2 C,2 D,4 |1 B,,4 B,,2 A,,2 F,,2 G,,2 C,4 | %5
[M:12/4] B,,4 G,,2 F,,2 B,,2 F,,2 C,4 F,,8 |] %6

